redshift-default-gamut-compression/config.ocio
# Redshift default OCIO config.
#

ocio_profile_version: 2.1

name: Redshift_3_5

search_path: 

environment: {}

file_rules:
  - !<Rule> {name: exr, extension: exr, pattern: "*", colorspace: Raw}
  - !<Rule> {name: hdr, extension: hdr, pattern: "*", colorspace: Raw}
  - !<Rule> {name: tx, extension: tx, pattern: "*", colorspace: Raw}
  - !<Rule> {name: Default, colorspace: default}

roles:
  aces_interchange: ACES2065-1
  cie_xyz_d65_interchange: CIE-XYZ D65
  color_picking: scene-linear Rec.709-sRGB
  data: Raw
  default: sRGB
  scene_linear: ACEScg

shared_views:
  - !<View> {name: ACES 1.0 SDR-video, view_transform: ACES 1.0 SDR-video, display_colorspace: <USE_DISPLAY_NAME>}
  - !<View> {name: ACES 1.0 SDR-video - ACES 1.3 Reference Gamut Compression, view_transform: ACES 1.0 SDR-video, display_colorspace: <USE_DISPLAY_NAME>, look: +ACES 1.3 Reference Gamut Compression}
  - !<View> {name: ACES 1.1 SDR-video (P3 lim), view_transform: ACES 1.1 SDR-video (P3 lim), display_colorspace: <USE_DISPLAY_NAME>}
  - !<View> {name: ACES 1.1 SDR-video (P3 lim) - ACES 1.3 Reference Gamut Compression, view_transform: ACES 1.1 SDR-video (P3 lim), display_colorspace: <USE_DISPLAY_NAME>, look: +ACES 1.3 Reference Gamut Compression}
  - !<View> {name: ACES 1.0 SDR-cinema, view_transform: ACES 1.0 SDR-cinema, display_colorspace: <USE_DISPLAY_NAME>}
  - !<View> {name: ACES 1.0 SDR-cinema - ACES 1.3 Reference Gamut Compression, view_transform: ACES 1.0 SDR-cinema, display_colorspace: <USE_DISPLAY_NAME>, look: +ACES 1.3 Reference Gamut Compression}
  - !<View> {name: ACES 1.1 HDR-video (1000 nits & Rec.2020 lim), view_transform: ACES 1.1 HDR-video (1000 nits & Rec.2020 lim), display_colorspace: <USE_DISPLAY_NAME>, look: +ACES 1.3 Reference Gamut Compression}
  - !<View> {name: ACES 1.1 HDR-video (1000 nits & Rec.2020 lim) - ACES 1.3 Reference Gamut Compression, view_transform: ACES 1.1 HDR-video (1000 nits & Rec.2020 lim), display_colorspace: <USE_DISPLAY_NAME>, look: +ACES 1.3 Reference Gamut Compression}
  - !<View> {name: ACES 1.1 HDR-video (1000 nits & P3 lim), view_transform: ACES 1.1 HDR-video (1000 nits & P3 lim), display_colorspace: <USE_DISPLAY_NAME>}
  - !<View> {name: ACES 1.1 HDR-video (1000 nits & P3 lim) - ACES 1.3 Reference Gamut Compression, view_transform: ACES 1.1 HDR-video (1000 nits & P3 lim), display_colorspace: <USE_DISPLAY_NAME>, look: +ACES 1.3 Reference Gamut Compression}
  - !<View> {name: Log, colorspace: ACEScct}
  - !<View> {name: Raw, colorspace: Raw}
  - !<View> {name: Un-tone-mapped, view_transform: Un-tone-mapped, display_colorspace: <USE_DISPLAY_NAME>}

displays:
  sRGB:
    - !<Views> [ ACES 1.0 SDR-video - ACES 1.3 Reference Gamut Compression, ACES 1.0 SDR-video, Un-tone-mapped, Log, Raw ]
  Rec.709:
    - !<Views> [ ACES 1.0 SDR-video - ACES 1.3 Reference Gamut Compression, ACES 1.0 SDR-video, Un-tone-mapped, Log, Raw]
  P3-D65:
    - !<Views> [ ACES 1.0 SDR-cinema - ACES 1.3 Reference Gamut Compression, ACES 1.0 SDR-cinema, Un-tone-mapped, Log, Raw]
  Rec.2020:
    - !<Views> [ ACES 1.0 SDR-video - ACES 1.3 Reference Gamut Compression, ACES 1.0 SDR-video, ACES 1.1 SDR-video (P3 lim) - ACES 1.3 Reference Gamut Compression, ACES 1.1 SDR-video (P3 lim), Un-tone-mapped, Log, Raw]
  Rec.2100-HLG:
    - !<Views> [ ACES 1.1 HDR-video (1000 nits & Rec.2020 lim), Un-tone-mapped, Log, Raw]
  Rec.2100-PQ:
    - !<Views> [ ACES 1.1 HDR-video (1000 nits & Rec.2020 lim), Un-tone-mapped, Log, Raw]
  ST2084-P3-D65:
    - !<Views> [ ACES 1.1 HDR-video (1000 nits & P3 lim), Un-tone-mapped, Log, Raw]
  DCI-P3 D65:
    - !<Views> [ ACES 1.0 SDR-video - ACES 1.3 Reference Gamut Compression, ACES 1.0 SDR-video, Un-tone-mapped, Log, Raw]
  AdobeRGB:
    - !<Views> [ ACES 1.0 SDR-video - ACES 1.3 Reference Gamut Compression, ACES 1.0 SDR-video, Un-tone-mapped, Log, Raw]

default_view_transform: Un-tone-mapped

view_transforms:

- !<ViewTransform>
    name: Un-tone-mapped
    description: |
      Convert the scene colorimetry directly to display-referred with no tone-mapping.
      This is often described as a "linear workflow." It is intended only for diagnostic purposes.
    from_scene_reference: !<BuiltinTransform> {style: "UTILITY - ACES-AP0_to_CIE-XYZ-D65_BFD"}

- !<ViewTransform>
    name: ACES 1.0 SDR-video
    description: |
      ACES Output Transform for SDR displays in a video viewing environment. ACES neutrals are at D65.
    from_scene_reference: !<BuiltinTransform> {style: "ACES-OUTPUT - ACES2065-1_to_CIE-XYZ-D65 - SDR-VIDEO_1.0"}

- !<ViewTransform>
    name: ACES 1.1 SDR-video (P3 lim)
    description: |
      Component of ACES Output Transforms for SDR D65 video
      
      ACEStransformID: urn:ampas:aces:transformId:v1.5:ODT.Academy.Rec2020_P3D65limited_100nits_dim.a1.1.0
    from_scene_reference: !<BuiltinTransform> {style: "ACES-OUTPUT - ACES2065-1_to_CIE-XYZ-D65 - SDR-VIDEO-P3lim_1.1"}
- !<ViewTransform>
    name: ACES 1.1 HDR-video (1000 nits & Rec.2020 lim)
    description: |
      Component of ACES Output Transforms for 1000 nit HDR D65 video
      
      ACEStransformID: urn:ampas:aces:transformId:v1.5:RRTODT.Academy.Rec2020_1000nits_15nits_HLG.a1.1.0
      ACEStransformID: urn:ampas:aces:transformId:v1.5:RRTODT.Academy.Rec2020_1000nits_15nits_ST2084.a1.1.0
    from_scene_reference: !<BuiltinTransform> {style: "ACES-OUTPUT - ACES2065-1_to_CIE-XYZ-D65 - HDR-VIDEO-1000nit-15nit-REC2020lim_1.1"}
- !<ViewTransform>
    name: ACES 1.1 HDR-video (1000 nits & P3 lim)
    description: |
      Component of ACES Output Transforms for 1000 nit HDR D65 video
      
      ACEStransformID: urn:ampas:aces:transformId:v1.5:RRTODT.Academy.P3D65_1000nits_15nits_ST2084.a1.1.0
    from_scene_reference: !<BuiltinTransform> {style: "ACES-OUTPUT - ACES2065-1_to_CIE-XYZ-D65 - HDR-VIDEO-1000nit-15nit-P3lim_1.1"}
- !<ViewTransform>
    name: ACES 1.0 SDR-cinema
    description: |
      Component of ACES Output Transforms for SDR cinema
      
      ACEStransformID: urn:ampas:aces:transformId:v1.5:ODT.Academy.P3D60_48nits.a1.0.3
      ACEStransformID: urn:ampas:aces:transformId:v1.5:ODT.Academy.P3D65_48nits.a1.1.0
    from_scene_reference: !<BuiltinTransform> {style: "ACES-OUTPUT - ACES2065-1_to_CIE-XYZ-D65 - SDR-CINEMA_1.0"}

inactive_colorspaces: [ CIE-XYZ D65 ]

display_colorspaces:

  - !<ColorSpace>
    name: CIE-XYZ D65
    family: Output
    description: |
      Display connection space, CIE XYZ with D65 adopted white point
    encoding: display-linear
    isdata: false
    categories:

  - !<ColorSpace>
    name: sRGB
    family:
    description: |
      sRGB monitor (piecewise EOTF)
    isdata: false
    categories: [ file-io ]
    encoding: sdr-video
    from_display_reference: !<GroupTransform>
      children:
        - !<BuiltinTransform> {style: "DISPLAY - CIE-XYZ-D65_to_sRGB"}
        - !<RangeTransform> {min_in_value: 0., min_out_value: 0., max_in_value: 1., max_out_value: 1.}

  - !<ColorSpace>
    name: AdobeRGB
    family:
    description: |
      AdobeRGB
    isdata: false
    categories: [ file-io ]
    encoding: sdr-video
    from_display_reference: !<GroupTransform>
      children:
        - !<MatrixTransform> {matrix: [ 2.041587903811, -0.565006974279, -0.344731350778, 0, -0.969243636281, 1.875967501508, 0.041555057407, 0, 0.013444280632, -0.118362392231, 1.015174994391, 0, 0, 0, 0, 1 ]}
        - !<ExponentTransform> {value: 2.19921875, direction: inverse}
        - !<RangeTransform> {min_in_value: 0., min_out_value: 0., max_in_value: 1., max_out_value: 1.}

  - !<ColorSpace>
    name: Rec.709
    aliases: [rec1886_rec709_display]
    family: Display
    equalitygroup: ""
    bitdepth: 32f
    description: Convert CIE XYZ (D65 white) to Rec.1886/Rec.709 (HD video)
    isdata: false
    categories: [file-io]
    encoding: sdr-video
    allocation: uniform
    from_display_reference: !<BuiltinTransform> {style: "DISPLAY - CIE-XYZ-D65_to_REC.1886-REC.709"}

  - !<ColorSpace>
    name: Rec.2020
    aliases: [rec1886_rec2020_display]
    family: Display
    equalitygroup: ""
    bitdepth: 32f
    description: Convert CIE XYZ (D65 white) to Rec.1886/Rec.2020 (UHD video)
    isdata: false
    categories: [file-io]
    encoding: sdr-video
    allocation: uniform
    from_display_reference: !<BuiltinTransform> {style: "DISPLAY - CIE-XYZ-D65_to_REC.1886-REC.2020"}

  - !<ColorSpace>
    name: Rec.2100-HLG
    aliases: [rec2100_hlg_display]
    family: Display
    equalitygroup: ""
    bitdepth: 32f
    description: Convert CIE XYZ (D65 white) to Rec.2100-HLG, 1000 nit
    isdata: false
    categories: [file-io]
    encoding: hdr-video
    allocation: uniform
    from_display_reference: !<BuiltinTransform> {style: "DISPLAY - CIE-XYZ-D65_to_REC.2100-HLG-1000nit"}

  - !<ColorSpace>
    name: Rec.2100-PQ
    aliases: [rec2100_pq_display]
    family: Display
    equalitygroup: ""
    bitdepth: 32f
    description: Convert CIE XYZ (D65 white) to Rec.2100-PQ
    isdata: false
    categories: [file-io]
    encoding: hdr-video
    allocation: uniform
    from_display_reference: !<BuiltinTransform> {style: "DISPLAY - CIE-XYZ-D65_to_REC.2100-PQ"}

  - !<ColorSpace>
    name: ST2084-P3-D65
    aliases: [st2084_p3d65_display]
    family: Display
    equalitygroup: ""
    bitdepth: 32f
    description: Convert CIE XYZ (D65 white) to ST-2084 (PQ), P3-D65 primaries
    isdata: false
    categories: [file-io]
    encoding: hdr-video
    allocation: uniform
    from_display_reference: !<BuiltinTransform> {style: "DISPLAY - CIE-XYZ-D65_to_ST2084-P3-D65"}

  - !<ColorSpace>
    name: P3-D65
    aliases: [p3d65_display]
    family: Display
    equalitygroup: ""
    bitdepth: 32f
    description: Convert CIE XYZ (D65 white) to Gamma 2.6, P3-D65
    isdata: false
    categories: [file-io]
    encoding: sdr-video
    allocation: uniform
    from_display_reference: !<BuiltinTransform> {style: "DISPLAY - CIE-XYZ-D65_to_G2.6-P3-D65"}

  - !<ColorSpace>
    name: DCI-P3 D65
    family: Display
    description: |
      DCI-P3 monitor with D65 white point and 2.6 gamma
    isdata: false
    categories: [ file-io ]
    encoding: sdr-video
    from_display_reference: !<GroupTransform>
      children:
        - !<MatrixTransform> {matrix: [ 2.493496911941, -0.931383617919, -0.402710784451, 0, -0.829488969562, 1.762664060318, 0.023624685842, 0, 0.035845830244, -0.076172389268, 0.956884524008, 0, 0, 0, 0, 1 ]}
        - !<ExponentTransform> {value: 2.6, direction: inverse}
        - !<RangeTransform> {min_in_value: 0., min_out_value: 0., max_in_value: 1., max_out_value: 1.}

colorspaces:
  
  # ACEScg is listed first to make default
  - !<ColorSpace>
    name: ACEScg
    family: ACES
    equalitygroup: ""
    bitdepth: 32f
    description: |
      ACEScg working space
    isdata: false
    categories: [ file-io, working-space ]
    encoding: scene-linear
    to_scene_reference: !<MatrixTransform> {matrix: [ 0.695452241357, 0.140678696470, 0.163869062172, 0, 0.044794563372, 0.859671118456, 0.095534318172, 0, -0.005525882558, 0.004025210306, 1.001500672252, 0, 0, 0, 0, 1 ]}

  - !<ColorSpace>
    name: ACES2065-1
    family: ACES
    equalitygroup: ""
    bitdepth: 32f
    description: |
      The Academy Color Encoding System reference color space
    isdata: false
    categories: [ file-io, working-space ]
    encoding: scene-linear

  - !<ColorSpace>
    name: scene-linear Rec.709-sRGB
    family: 
    equalitygroup: ""
    bitdepth: 32f
    description: |
      Scene-linear Rec.709 or sRGB primaries
    isdata: false
    categories: [ file-io, working-space ]
    encoding: scene-linear
    to_scene_reference: !<MatrixTransform> {matrix: [ 0.439632981919, 0.382988698152, 0.177378319929, 0, 0.089776442959, 0.813439428749, 0.096784128292, 0, 0.017541170383, 0.111546553302, 0.870912276314, 0, 0, 0, 0, 1 ]}

  - !<ColorSpace>
    name: scene-linear DCI-P3 D65
    family: 
    equalitygroup: ""
    bitdepth: 32f
    description: |
      P3 primaries (D65 whitepoint) to ACES primaries
    isdata: false
    categories: [ file-io, working-space ]
    encoding: scene-linear
    to_scene_reference: !<MatrixTransform> {matrix: [ 0.518946170807, 0.286250382662, 0.194806188345, 0, 0.073861978948, 0.819847285748, 0.106291942298, 0, -0.000306552567, 0.043808195740, 0.956494748592, 0, 0, 0, 0, 1 ]}

  - !<ColorSpace>
    name: scene-linear Rec.2020
    family: 
    equalitygroup: ""
    bitdepth: 32f
    description: |
      Scene-linear Rec 2020/UHDTV primaries to ACES2065-1
    isdata: false
    categories: [ file-io, working-space ]
    encoding: scene-linear
    to_scene_reference: !<MatrixTransform> {matrix: [ 0.679085634734, 0.157700914650, 0.163213450689, 0, 0.046002003035, 0.859054673009, 0.094943323917, 0, -0.000573943188, 0.028467768407, 0.972106174733, 0, 0, 0, 0, 1 ]}

  - !<ColorSpace>
    name: Raw
    family: 
    equalitygroup: ""
    bitdepth: 32f
    description: |
      Raw (no color processing)
    isdata: true
    categories: [ file-io ]
    encoding: data

  - !<ColorSpace>
    name: ACEScct
    family: ACES
    description: |
      ACES log working space
    isdata: false
    categories: [ file-io ]
    encoding: log
    to_scene_reference: !<BuiltinTransform> {style: "ACEScct_to_ACES2065-1"}

  - !<ColorSpace>
    name: ARRI LogC / AlexaWideGamut
    family: Cameras/ARRI
    description: |
      Alexa-v3-LogC-EI800 (SUP v3 color science)
    isdata: false
    categories: [ file-io ]
    encoding: log
    to_scene_reference: !<BuiltinTransform> {style: "ARRI_ALEXA-LOGC-EI800-AWG_to_ACES2065-1"}

  - !<ColorSpace>
    name: RED Log3G10 / REDWideGamutRGB
    family: Cameras/RED
    description: |
      RED Log3G10 / REDWideGamutRGB
    isdata: false
    categories: [ file-io ]
    encoding: log
    to_scene_reference: !<BuiltinTransform> {style: "RED_LOG3G10-RWG_to_ACES2065-1"}

  - !<ColorSpace>
    name: Sony SLog3 / SGamut3
    family: Cameras/Sony
    description: |
      Sony SLog3 / SGamut3
    isdata: false
    categories: [ file-io ]
    encoding: log
    to_scene_reference: !<BuiltinTransform> {style: "SONY_SLOG3-SGAMUT3_to_ACES2065-1"}

  - !<ColorSpace>
    name: Panasonic V-Log / V-Gamut
    family: Cameras/Panasonic
    description: |
      Panasonic V-Log / V-Gamut
    isdata: false
    categories: [ file-io ]
    encoding: log
    to_scene_reference: !<BuiltinTransform> {style: "PANASONIC_VLOG-VGAMUT_to_ACES2065-1"}

  - !<ColorSpace>
    name: Log film scan (ADX10)
    family: 
    description: |
      ADX10 Academy Density Exchange (10-bit printing density)
    isdata: false
    categories: [ file-io ]
    encoding: log
    to_scene_reference: !<BuiltinTransform> {style: "ADX10_to_ACES2065-1"}
    
  - !<ColorSpace>
    name: Invert ACES 1.0 SDR-video
    family: ACES
    bitdepth: 32f
    description: |
      Invert Display Transform for ACES 1.0 SDR-video
    isdata: false
    categories: [ file-io ]
    encoding: sdr-video
    to_scene_reference: !<DisplayViewTransform> {src: "ACES2065-1", display: "sRGB", view: "ACES 1.0 SDR-video", direction: inverse}
    from_scene_reference: !<GroupTransform>
      children:
        - !<DisplayViewTransform> {src: "ACES2065-1", display: "sRGB", view: "ACES 1.0 SDR-video"}
        - !<RangeTransform> {min_in_value: 0., min_out_value: 0., max_in_value: 1., max_out_value: 1.}

looks:
  - !<Look>
    name: ACES 1.3 Reference Gamut Compression
    process_space: ACES2065-1
    description: |
      LMT (applied in ACES2065-1) to compress scene-referred values from common cameras into the AP1 gamut
      ACEStransformID: urn:ampas:aces:transformId:v1.5:LMT.Academy.GamutCompress.a1.3.0
    transform: !<BuiltinTransform> {style: ACES-LMT - ACES 1.3 Reference Gamut Compression}